X: 17
T:Madam Cathrin's Hornpipe 
M:3/2
L:1/4
S:Marsden
Z:ps
K:C
ec2GE2 | Dd2agf | ec2GE2 | Cc2agf || 
ecgcec | fd2agf | ecgcec | gcecfd || 
ecgcec | afdaag/f/ | fc2CE/F/ G/E/ | Cc2agf || 
ecGAEG | Dd2e/f/ g/f/e/d/ | ecGAEG | Cce/f/g/e/ d/e/f/g/ || 
ec2CE2 | Dd2agf | ec2CE/F/ G/E/ | Cc2ed/e/f/g/ || 
ecgce/f/g/e/ | fdadf/g/a/f/ | ecgce/f/g/e/ | gce/f/g/e/ f/g/a/f/ || 
ecgce/f/g/e/ | a/g/f/e/daf/g/a/f/ | g/f/e/d/ c/B/ A/G/ E/F/ G/E/ | Cce/f/g/e/ d/e/f/g/ || 

